!!!COM: Fanny (Mendelssohn) Hensel
!!!CNT: Deutsch
!!!TXO: Deutsch
!!!OTL: "Ich kann wohl manchmal singen"
!!!LYR: von Eichendorff, Joseph Freiherr
!!!OPR: 
!!!OPS: Op. 
!!!ONM: No. 
!!!ENC: Emily Thomas
!!!YOR: Hensel: Ausgewa2hlte Lieder fu2r Singstimme und Klavier
!!!YOR: Breitkopf & Hartel, 1994 vol. 2
!!!ODT: 1846/
!!NB: Vocal melody and text encoded.
**kern	**silbe
=1-	=1
*clefG2	*
*k[f#]	*
*M6/8	*
*MM[Andante]	*
4r	.
8r	.
4r	.
{8dd	{Ich
=2	=2
4dd	kann
8dd	wohl
4dd	manch-
8dd	-mal
=3	=3
4.ee	sin-
4a}	-gen,}
{8a	{als
=4	=4
4dd	ob
8cc	ich
4b	fro2h-
8a	-lich
=5	=5
4.cc	sei,
4b}	|}
{8e	{doch
=6	=6
8cc	heim-
8b	|
8a	-lich
8e	Tra2-
8fn	|
8e	-nen
=7	=7
4cc	drin-
8b	|
4a}	-gen,}
{8g#	{da
=8	=8
8ee	wird
8cc	|
8b	das
4a#	Herz
8ee	mir
=9	=9
4.dd#}	frei.}
4r	.
{8b	{Ich
=10	=10
4cc	kann
8cc	wohl
4ee-	manch-
8ee-	-mal
=11	=11
4.ee-	sin-
4dd}	-gen,}
{8a	{als
=12	=12
4b-	ob
8g	ich
8dd	fro2h-
8a	|
8b-	-lich
=13	=13
4.gg}	sei,}
4r	.
{8b-	{doch
=14	=14
8a	heim-
8cc	|
8b-	-lich
8g#	Tra2-
8a	|
8cc	-nen
=15	=15
4.ee-	drin-
4dd}	-gen,}
{8a	{da
=16	=16
8b-	wird
8f#	|
8g	das
[4.b-	Herz,
=17	=17
4b-]}	|}
{8bn	{da
4cc	wird
8cc#	das
=18	=18
4.dd	Herz
8dd#	|
8ee	|
8cc	mir
=19	=19
4.cc	frei.
4b}	|}
8r	.
=20	=20
4r	.
8r	.
4r	.
{8dd	{Es
=21	=21
4dd	lau-
8dd	-schen
4dd	al-
8dd	-le
=22	=22
4.ee	her-
4a}	-zen,}
{8a	{und
=23	=23
4dd	al-
8cc	-les
4b	ist
8a	er-
=24	=24
4.cc	-freut,
4b}	|}
{8dd	{doch
=25	=25
4ee-	kei-
8ee-	-ner
4dd	ahnt
8cc#	die
=26	=26
4cc#	Schmer-
8dd}	-zen,}
4r	.
{8dd	{im
=27	=27
4ffn	Lied
8dd	das
4cc	tie-
8b	-fe
=28	=28
4b	Lied,
8cc}	|}
4r	.
{8cc#	{Doch
=29	=29
4.dd	kei-
4.dd#	-ner
=30	=30
4.ee	ahnt
4.ff#	die
=31	=31
8gg	Schmer-
8ffn}	-zen,}
{8ee-	{im
4dd	Lied
8cc#	das
=32	=32
4.dd	tie-
8dd#	|
8ee	|
8cc	-fe
=33	=33
4.cc	Lied
4b}	|}
8r	.
==	==
*-	*-
